X:59
T:Pollonesse 1832-59
O:Södermanland
R:Slängpolska
B:Notbok 1832 från Sörmlands museum
N:[[http://www.sormlandsmusikarkiv.se/noter/1832/1832.html]]
Z:ABC-transkibering av Jonas Brunskog (via midi)
M: 3/4
L: 1/16
K: G
|:G2B2 BAFA A2G2 | B2d2 dcAc c2B2 | dBdg eceg fdfa | gfge cBcB A2G2 :|
|:G2B2 B2d2 d2Bd | dcAc c2B2 B2AB | c2Ac B2GB A2FA | G2>E2 E2D2 D4 |
G2B2 B2d2 d2Bd | dcAc c2B2 B2AB | c2Ac B2GB A2FA | A2>G2 G8 :|

